src/assets/svg/additional/6-telegram.svg

<svg width="28" height="27" viewBox="0 0 28 27" fill="none" xmlns="http://www.w3.org/2000/svg">
<g opacity="0.8">
<g clip-path="url(#clip0_114_457)">
<rect x="0.5" y="0.000366211" width="27" height="27" rx="2" fill="#E2E2E2"/>
<path fill-rule="evenodd" clip-rule="evenodd" d="M0.5 0.000366211V27.0004H27.5V0.000366211H0.5ZM23.3351 5.97478L20.1629 21.2334C20.0882 21.5937 19.6657 21.7569 19.3677 21.5403L15.0373 18.3964C14.7744 18.2055 14.4159 18.2156 14.1643 18.4208L11.7633 20.3779C11.4847 20.6058 11.0648 20.4788 10.9581 20.1357L9.29102 14.7742L4.9839 13.1667C4.54638 13.0028 4.54264 12.3851 4.97891 12.2171L22.6554 5.39793C23.0302 5.25302 23.4168 5.5813 23.3351 5.97478Z" fill="#161414"/>
<path fill-rule="evenodd" clip-rule="evenodd" d="M19.1072 8.73405L10.6895 13.9185C10.3669 14.1176 10.215 14.5072 10.3191 14.8719L11.2292 18.0699C11.294 18.2964 11.6227 18.2733 11.6542 18.0392L11.8908 16.2855C11.9354 15.9553 12.0929 15.651 12.3371 15.4238L19.2841 8.96619C19.4141 8.84573 19.2584 8.64118 19.1072 8.73405Z" fill="#161414"/>
</g>
</g>
<defs>
<clipPath id="clip0_114_457">
<rect x="0.5" y="0.000366211" width="27" height="27" rx="2" fill="white"/>
</clipPath>
</defs>
</svg>

<svg xmlns="http://www.w3.org/2000/svg" width="28" height="27" fill="none"><g clip-path="url(#a)" opacity=".8"><rect width="27" height="27" x=".5" fill="#E2E2E2" rx="2"/><path fill="#161414" fill-rule="evenodd" d="M.5 0v27h27V0H.5Zm22.835 5.975-3.172 15.258a.507.507 0 0 1-.795.307l-4.33-3.144a.716.716 0 0 0-.874.025l-2.4 1.957a.507.507 0 0 1-.806-.242l-1.667-5.362-4.307-1.607a.508.508 0 0 1-.005-.95l17.676-6.82a.508.508 0 0 1 .68.578Z" clip-rule="evenodd"/><path fill="#161414" fill-rule="evenodd" d="m19.107 8.734-8.417 5.184a.848.848 0 0 0-.37.954l.91 3.198c.064.226.393.203.424-.03l.237-1.755a1.44 1.44 0 0 1 .446-.861l6.947-6.458c.13-.12-.026-.325-.177-.232Z" clip-rule="evenodd"/></g><defs><clipPath id="a"><rect width="27" height="27" x=".5" fill="#fff" rx="2"/></clipPath></defs></svg>
